!!!!SEGMENT:41Mysterioso.krn
!!!OTL: Mysterioso（怪異）
!!!OPR:Eiga Banso Kyokusyu,jidai-geki,zenpen
!!!YOY:1929
!!!ONB:Mysterioso,Shinobikomi,Seisan
**kern
*clefG2
*k[b-]
*F:
*M4/4
*met(c)
=1
2d
(16qqd/LL
16qqe/JJ
8f)
8r
4r
=2
2d
(16qqd/LL
16qqe/JJ
8f)
8r
4r
=3
8.dL
16fk
8.a
16fJk
8eL
8r
8dJ
8r
=4
8e
8r
4r
8cc#X 8aa
8r
4r
=5
2G
(16qqG/LL
16qqA/JJ
8B-)
8r
4r
=6
2G
(16qqG/LL
16qqA/JJ
8B-)
8r
4r
=7
8.AL
16c#Xk
8.e
16c#Jk
8AL
8r
8c#J
8r
=8
8d
8r
4r
8ff 8ddd
8r
4r
=9
4f
4e
4d
4B-
=10
8A
8r
4r
4r
8.GL
16AJk
=11
8.B-L
16AJk
8G
8r
4r
8.AL
16c#XJk
=12
8.dL
16eJk
8f
8r
4r
4d
=13
8B- 8g
8r
4r
8A 8f
8r
4r
=14
8c#XL 8e
8r
8c#J 8f
8r
8A 8d
8r
4r
=15
4B-
8.AL
16GJk
8A
8r
8c#X
8r
=16
2.d
4r
==
*-
!!!ENC: Yukiko Yoden
!!!END: 2023/06/11
